X: 7
T: No_104_Song_at_About_Midnight_(b).krn
N: Derived from No_104_Song_at_About_Midnight_(b).krn
%%abc-version 2.0
%%abcx-abcm2ps-target-version 5.9.1 (29 Sep 2008)
%%abc-creator hum2abc beta
%%abcx-conversion-date 2019/03/15 08:39:19
%%humdrum-veritas 1636784369
%%humdrum-veritas-data 1671658696
%%linebreak <none>
%%barnumbers 0
L: 1/8
M: 2/4
%%staves {1 2}
V: 1 clef=bass
V: 2 clef=bass
K: D
[V:1] [K:clef=bass][M:2/4]F,3/F,/ A,B, [I:setbarnb 2]| 
[V:2] [K:clef=bass][M:2/4]G,,G,, G,, z/ G,,/ | 
[V:1] DB, A,3/B,/ | 
[V:2] G,,G,, G,, z/ G,,/ | 
[V:1] A,2F,3/F,/ | 
[V:2] G,,G,, G,, z/ G,,/ | 
[V:1] A,3/F,/ A,A, | 
[V:2] G,,G,, G,, z/ G,,/ | 
[V:1] A,2z2 | 
[V:2] G,,G,,z2 | 
[V:1] F,3/F,/ A,B, | 
[V:2] G,,G,, G,, z/ G,,/ | 
[V:1] DB, A,B, | 
[V:2] G,,G,, G,, z/ G,,/ | 
[V:1] A,2F,3/F,/ | 
[V:2] G,,G,, G,, z/ G,,/ | 
[V:1] A,3/F,/ A,A, | 
[V:2] G,,G,, G,, z/ G,,/ | 
[V:1] A,2z2 :|]  
[V:2] G,,G,,z2 :|]  
[V:1] z4 | 
[V:2] z4 | 
[V:1] z2z3/ A,/ | 
[V:2] z4 | 
[V:1] A,3/A,/ A, z | 
[V:2] G,,G,, G,, z/ G,,/ | 
[V:1] EB, A,3/D/ | 
[V:2] G,,G,, G,, z/ G,,/ | 
[V:1] DB, A,3/F,/ | 
[V:2] G,,G,, G,, z/ G,,/ | 
[V:1] A,3/A,/ _B,3/D/ | 
[V:2] G,,G,, G,, z/ G,,/ | 
[V:1] DB, A,B, | 
[V:2] G,,G,, G,, z/ G,,/ | 
[V:1] A,2F,3/F,/ | 
[V:2] G,,G,, G,, z/ G,,/ | 
[V:1] A,3/F,/ A,A, | 
[V:2] G,,G,, G,, z/ G,,/ | 
[V:1] A,2z2 | 
[V:2] G,,G,,z2 | 
[V:1] F,3/F,/ A,3/B,/ | 
[V:2] G,,G,, G,, z/ G,,/ | 
[V:1] DB, A,B, | 
[V:2] G,,G,, G,, z/ G,,/ | 
[V:1] A,2F,3/F,/ | 
[V:2] G,,G,, G,, z/ G,,/ | 
[V:1] A,3/F,/ A,A, | 
[V:2] G,,G,, G,, z/ G,,/ | 
[V:1] A,2z2 |]  
[V:2] G,,G,,z2 |]  



